resources/svg/alarm-warning-line.svg

<svg fill="currentColor" viewBox="0 0 24 24" xmlns="http://www.w3.org/2000/svg"><path d="M4.00098 20V14C4.00098 9.58172 7.5827 6 12.001 6C16.4193 6 20.001 9.58172 20.001 14V20H21.001V22H3.00098V20H4.00098ZM6.00098 20H18.001V14C18.001 10.6863 15.3147 8 12.001 8C8.68727 8 6.00098 10.6863 6.00098 14V20ZM11.001 2H13.001V5H11.001V2ZM19.7792 4.80761L21.1934 6.22183L19.0721 8.34315L17.6578 6.92893L19.7792 4.80761ZM2.80859 6.22183L4.22281 4.80761L6.34413 6.92893L4.92991 8.34315L2.80859 6.22183ZM7.00098 14C7.00098 11.2386 9.23956 9 12.001 9V11C10.3441 11 9.00098 12.3431 9.00098 14H7.00098Z"/></svg>

<svg xmlns="http://www.w3.org/2000/svg" viewBox="0 0 24 24" fill="currentColor">
    <g>
        <path fill="none" d="M0 0h24v24H0z"/>
        <path d="M4 20v-6a8 8 0 1 1 16 0v6h1v2H3v-2h1zm2 0h12v-6a6 6 0 1 0-12 0v6zm5-18h2v3h-2V2zm8.778 2.808l1.414 1.414-2.12 2.121-1.415-1.414 2.121-2.121zM2.808 6.222l1.414-1.414 2.121 2.12L4.93 8.344 2.808 6.222zM7 14a5 5 0 0 1 5-5v2a3 3 0 0 0-3 3H7z"/>
    </g>
</svg>
